48x48/apps/qucs.svg

<svg viewBox="0 0 48 48"><defs><linearGradient id="linearGradient3764" x1="1" x2="47" gradientUnits="userSpaceOnUse" gradientTransform="matrix(0,-1,1,0,-1.5e-6,47.999998)"><stop stop-color="#ec9b28" stop-opacity="1"/><stop offset="1" stop-color="#eea63b" stop-opacity="1"/></linearGradient><clipPath id="clipPath-332632675"><g transform="translate(0,-1004.3622)"><path d="m -24 13 c 0 1.105 -0.672 2 -1.5 2 -0.828 0 -1.5 -0.895 -1.5 -2 0 -1.105 0.672 -2 1.5 -2 0.828 0 1.5 0.895 1.5 2 z" transform="matrix(15.333333,0,0,11.5,414.99999,878.8622)" fill="#1890d0"/></g></clipPath><clipPath id="clipPath-341496612"><g transform="translate(0,-1004.3622)"><path d="m -24 13 c 0 1.105 -0.672 2 -1.5 2 -0.828 0 -1.5 -0.895 -1.5 -2 0 -1.105 0.672 -2 1.5 -2 0.828 0 1.5 0.895 1.5 2 z" transform="matrix(15.333333,0,0,11.5,414.99999,878.8622)" fill="#1890d0"/></g></clipPath></defs><g><path d="m 36.31 5 c 5.859 4.062 9.688 10.831 9.688 18.5 c 0 12.426 -10.07 22.5 -22.5 22.5 c -7.669 0 -14.438 -3.828 -18.5 -9.688 c 1.037 1.822 2.306 3.499 3.781 4.969 c 4.085 3.712 9.514 5.969 15.469 5.969 c 12.703 0 23 -10.298 23 -23 c 0 -5.954 -2.256 -11.384 -5.969 -15.469 c -1.469 -1.475 -3.147 -2.744 -4.969 -3.781 z m 4.969 3.781 c 3.854 4.113 6.219 9.637 6.219 15.719 c 0 12.703 -10.297 23 -23 23 c -6.081 0 -11.606 -2.364 -15.719 -6.219 c 4.16 4.144 9.883 6.719 16.219 6.719 c 12.703 0 23 -10.298 23 -23 c 0 -6.335 -2.575 -12.06 -6.719 -16.219 z" opacity="0.05"/><path d="m 41.28 8.781 c 3.712 4.085 5.969 9.514 5.969 15.469 c 0 12.703 -10.297 23 -23 23 c -5.954 0 -11.384 -2.256 -15.469 -5.969 c 4.113 3.854 9.637 6.219 15.719 6.219 c 12.703 0 23 -10.298 23 -23 c 0 -6.081 -2.364 -11.606 -6.219 -15.719 z" opacity="0.1"/><path d="m 31.25 2.375 c 8.615 3.154 14.75 11.417 14.75 21.13 c 0 12.426 -10.07 22.5 -22.5 22.5 c -9.708 0 -17.971 -6.135 -21.12 -14.75 a 23 23 0 0 0 44.875 -7 a 23 23 0 0 0 -16 -21.875 z" opacity="0.2"/></g><g><path d="m 24 1 c 12.703 0 23 10.297 23 23 c 0 12.703 -10.297 23 -23 23 -12.703 0 -23 -10.297 -23 -23 0 -12.703 10.297 -23 23 -23 z" fill="url(#linearGradient3764)" fill-opacity="1"/></g><g/><g><g clip-path="url(#clipPath-332632675)"><g transform="translate(1,1)"><g opacity="0.1"><!-- color: #eea63b --><g><path d="M 15 34 L 34.574219 14 L 37 16.425781 L 19.601562 34 M 15 34 " fill="#000" stroke="none" fill-rule="nonzero" fill-opacity="0.914"/><path d="m 22 34 l 11.609 -12 l 2.391 2.586 l -9.586 9.414 m -4.414 0" fill="#000" stroke="none" fill-rule="nonzero" fill-opacity="0.914"/><path d="m 29 34 l 5.477 -5.348 l 2.133 2.348 l -2.922 3 m -4.688 0" fill="#000" stroke="none" fill-rule="nonzero" fill-opacity="0.914"/><path d="m 14.781 16.875 c -2.09 0 -3.781 1.691 -3.781 3.781 c 0 2.09 1.691 3.781 3.781 3.781 c 0.086 0 0.164 -0.027 0.25 -0.031 l -0.031 0.031 c 0.113 0.039 0.316 -0.012 0.531 -0.063 c 0.426 -0.105 0.93 -0.246 1.188 0.031 l 2.625 2.469 l 1.875 -1.875 l -2.594 -2.438 c -0.27 -0.242 -0.195 -0.68 -0.125 -1.156 c 0.035 -0.234 0.059 -0.484 0.063 -0.719 c 0 -0.012 0 -0.023 0 -0.031 c 0 -2.09 -1.691 -3.781 -3.781 -3.781 m 0.063 2.313 c 0.828 0 1.5 0.672 1.5 1.5 c 0 0.828 -0.672 1.5 -1.5 1.5 c -0.828 0 -1.5 -0.672 -1.5 -1.5 c 0 -0.828 0.672 -1.5 1.5 -1.5 m 0 0" fill="#000" stroke="none" fill-rule="nonzero" fill-opacity="0.914"/></g></g></g></g></g><g><g clip-path="url(#clipPath-341496612)"><!-- color: #eea63b --><g><path d="M 15 34 L 34.574219 14 L 37 16.425781 L 19.601562 34 M 15 34 " fill="#f9f9f9" stroke="none" fill-rule="nonzero" fill-opacity="0.914"/><path d="m 22 34 l 11.609 -12 l 2.391 2.586 l -9.586 9.414 m -4.414 0" fill="#f9f9f9" stroke="none" fill-rule="nonzero" fill-opacity="0.914"/><path d="m 29 34 l 5.477 -5.348 l 2.133 2.348 l -2.922 3 m -4.688 0" fill="#f9f9f9" stroke="none" fill-rule="nonzero" fill-opacity="0.914"/><path d="m 14.781 16.875 c -2.09 0 -3.781 1.691 -3.781 3.781 c 0 2.09 1.691 3.781 3.781 3.781 c 0.086 0 0.164 -0.027 0.25 -0.031 l -0.031 0.031 c 0.113 0.039 0.316 -0.012 0.531 -0.063 c 0.426 -0.105 0.93 -0.246 1.188 0.031 l 2.625 2.469 l 1.875 -1.875 l -2.594 -2.438 c -0.27 -0.242 -0.195 -0.68 -0.125 -1.156 c 0.035 -0.234 0.059 -0.484 0.063 -0.719 c 0 -0.012 0 -0.023 0 -0.031 c 0 -2.09 -1.691 -3.781 -3.781 -3.781 m 0.063 2.313 c 0.828 0 1.5 0.672 1.5 1.5 c 0 0.828 -0.672 1.5 -1.5 1.5 c -0.828 0 -1.5 -0.672 -1.5 -1.5 c 0 -0.828 0.672 -1.5 1.5 -1.5 m 0 0" fill="#f9f9f9" stroke="none" fill-rule="nonzero" fill-opacity="0.914"/></g></g></g><g><path d="m 40.03 7.531 c 3.712 4.084 5.969 9.514 5.969 15.469 0 12.703 -10.297 23 -23 23 c -5.954 0 -11.384 -2.256 -15.469 -5.969 4.178 4.291 10.01 6.969 16.469 6.969 c 12.703 0 23 -10.298 23 -23 0 -6.462 -2.677 -12.291 -6.969 -16.469 z" opacity="0.1"/></g></svg>

<?xml version="1.0" encoding="UTF-8" standalone="no"?>
<svg
   xmlns:dc="http://purl.org/dc/elements/1.1/"
   xmlns:cc="http://creativecommons.org/ns#"
   xmlns:rdf="http://www.w3.org/1999/02/22-rdf-syntax-ns#"
   xmlns:svg="http://www.w3.org/2000/svg"
   xmlns="http://www.w3.org/2000/svg"
   xmlns:sodipodi="http://sodipodi.sourceforge.net/DTD/sodipodi-0.dtd"
   xmlns:inkscape="http://www.inkscape.org/namespaces/inkscape"
   viewBox="0 0 48 48"
   id="svg2"
   version="1.1"
   inkscape:version="0.48.4 r9939"
   width="100%"
   height="100%"
   sodipodi:docname="qucs.svg">
  <metadata
     id="metadata73">
    <rdf:RDF>
      <cc:Work
         rdf:about="">
        <dc:format>image/svg+xml</dc:format>
        <dc:type
           rdf:resource="http://purl.org/dc/dcmitype/StillImage" />
      </cc:Work>
    </rdf:RDF>
  </metadata>
  <sodipodi:namedview
     pagecolor="#ffffff"
     bordercolor="#666666"
     borderopacity="1"
     objecttolerance="10"
     gridtolerance="10"
     guidetolerance="10"
     inkscape:pageopacity="0"
     inkscape:pageshadow="2"
     inkscape:window-width="1375"
     inkscape:window-height="876"
     id="namedview71"
     showgrid="false"
     inkscape:zoom="4.9166667"
     inkscape:cx="-12"
     inkscape:cy="24"
     inkscape:window-x="65"
     inkscape:window-y="24"
     inkscape:window-maximized="1"
     inkscape:current-layer="svg2" />
  <defs
     id="defs4">
    <linearGradient
       id="linearGradient3764"
       x1="1"
       x2="47"
       gradientUnits="userSpaceOnUse"
       gradientTransform="matrix(0,-1,1,0,-1.5e-6,47.999998)">
      <stop
         stop-color="#ec9b28"
         stop-opacity="1"
         id="stop7" />
      <stop
         offset="1"
         stop-color="#eea63b"
         stop-opacity="1"
         id="stop9" />
    </linearGradient>
    <clipPath
       id="clipPath-332632675">
      <g
         transform="translate(0,-1004.3622)"
         id="g12">
        <path
           d="m -24 13 c 0 1.105 -0.672 2 -1.5 2 -0.828 0 -1.5 -0.895 -1.5 -2 0 -1.105 0.672 -2 1.5 -2 0.828 0 1.5 0.895 1.5 2 z"
           transform="matrix(15.333333,0,0,11.5,414.99999,878.8622)"
           fill="#1890d0"
           id="path14" />
      </g>
    </clipPath>
    <clipPath
       id="clipPath-341496612">
      <g
         transform="translate(0,-1004.3622)"
         id="g17">
        <path
           d="m -24 13 c 0 1.105 -0.672 2 -1.5 2 -0.828 0 -1.5 -0.895 -1.5 -2 0 -1.105 0.672 -2 1.5 -2 0.828 0 1.5 0.895 1.5 2 z"
           transform="matrix(15.333333,0,0,11.5,414.99999,878.8622)"
           fill="#1890d0"
           id="path19" />
      </g>
    </clipPath>
    <linearGradient
       id="linearGradient3764-4"
       x1="1"
       x2="47"
       gradientUnits="userSpaceOnUse"
       gradientTransform="matrix(0,-1,1,0,-1.5e-6,47.999998)">
      <stop
         stop-color="#b5945b"
         stop-opacity="1"
         id="stop7-6" />
      <stop
         offset="1"
         stop-color="#bb9e69"
         stop-opacity="1"
         id="stop9-6" />
    </linearGradient>
    <clipPath
       id="clipPath-899834956">
      <g
         transform="translate(0,-1004.3622)"
         id="g12-9">
        <path
           d="m -24 13 c 0 1.105 -0.672 2 -1.5 2 -0.828 0 -1.5 -0.895 -1.5 -2 0 -1.105 0.672 -2 1.5 -2 0.828 0 1.5 0.895 1.5 2 z"
           transform="matrix(15.333333,0,0,11.5,414.99999,878.8622)"
           fill="#1890d0"
           id="path14-9" />
      </g>
    </clipPath>
    <clipPath
       id="clipPath-909443126">
      <g
         transform="translate(0,-1004.3622)"
         id="g17-9">
        <path
           d="m -24 13 c 0 1.105 -0.672 2 -1.5 2 -0.828 0 -1.5 -0.895 -1.5 -2 0 -1.105 0.672 -2 1.5 -2 0.828 0 1.5 0.895 1.5 2 z"
           transform="matrix(15.333333,0,0,11.5,414.99999,878.8622)"
           fill="#1890d0"
           id="path19-8" />
      </g>
    </clipPath>
    <clipPath
       id="clipPath-909443126-7">
      <g
         transform="translate(0,-1004.3622)"
         id="g17-2">
        <path
           style="fill:#1890d0"
           inkscape:connector-curvature="0"
           d="m -24,13 c 0,1.105 -0.672,2 -1.5,2 -0.828,0 -1.5,-0.895 -1.5,-2 0,-1.105 0.672,-2 1.5,-2 0.828,0 1.5,0.895 1.5,2 z"
           transform="matrix(15.333333,0,0,11.5,414.99999,878.8622)"
           id="path19-3" />
      </g>
    </clipPath>
    <linearGradient
       id="linearGradient3759">
      <stop
         id="stop3761"
         offset="0"
         style="stop-color:#a75e15;stop-opacity:1;" />
      <stop
         id="stop3763"
         offset="1"
         style="stop-color:#ffffff;stop-opacity:0;" />
    </linearGradient>
    <linearGradient
       id="linearGradient3777">
      <stop
         id="stop3779"
         offset="0"
         style="stop-color:#e0dd00;stop-opacity:1;" />
      <stop
         id="stop3781"
         offset="1"
         style="stop-color:#000000;stop-opacity:0;" />
    </linearGradient>
    <clipPath
       id="clipPath-341496612-9">
      <g
         transform="translate(0,-1004.3622)"
         id="g17-8">
        <path
           style="fill:#1890d0"
           inkscape:connector-curvature="0"
           d="m -24,13 c 0,1.105 -0.672,2 -1.5,2 -0.828,0 -1.5,-0.895 -1.5,-2 0,-1.105 0.672,-2 1.5,-2 0.828,0 1.5,0.895 1.5,2 z"
           transform="matrix(15.333333,0,0,11.5,414.99999,878.8622)"
           id="path19-6" />
      </g>
    </clipPath>
  </defs>
  <g
     id="g33" />
  <g
     id="g3097">
    <g
       inkscape:label="shadows"
       id="layer2">
      <rect
         ry="13.03658"
         rx="13.03658"
         y="1"
         x="1"
         height="46"
         width="46"
         id="rect3007"
         style="opacity:0.1;fill:#000000;fill-opacity:1;fill-rule:nonzero;stroke:none" />
      <rect
         style="opacity:0.1;fill:#000000;fill-opacity:1;fill-rule:nonzero;stroke:none"
         id="rect3011"
         width="47"
         height="47"
         x="0.5"
         y="0.5"
         rx="13.319984"
         ry="13.319984" />
      <rect
         style="opacity:0.1;fill:#000000;fill-opacity:1;fill-rule:nonzero;stroke:none"
         id="rect3013"
         width="46.5"
         height="46.5"
         x="0.75"
         y="0.75"
         rx="13.178282"
         ry="13.178282" />
    </g>
    <g
       style="display:inline"
       inkscape:label="background-color"
       id="layer1">
      <rect
         transform="matrix(0,-1,1,0,0,0)"
         ry="12.753176"
         rx="12.753176"
         y="1.5"
         x="-46.5"
         height="45"
         width="45"
         id="rect2988"
         style="fill:#ec9b28;fill-opacity:1;fill-rule:nonzero;stroke:none" />
    </g>
  </g>
  <g
     id="g53-7">
    <g
       clip-path="url(#clipPath-341496612-9)"
       id="g55-0">
      <!-- color: #eea63b -->
      <g
         id="g57-2">
        <path
           style="fill:#f9f9f9;fill-opacity:0.91399997;fill-rule:nonzero;stroke:none"
           inkscape:connector-curvature="0"
           d="M 15,34 34.574219,14 37,16.425781 19.601562,34 M 15,34"
           id="path59-0" />
        <path
           style="fill:#f9f9f9;fill-opacity:0.91399997;fill-rule:nonzero;stroke:none"
           inkscape:connector-curvature="0"
           d="M 22,34 33.609,22 36,24.586 26.414,34 M 22,34"
           id="path61-8" />
        <path
           style="fill:#f9f9f9;fill-opacity:0.91399997;fill-rule:nonzero;stroke:none"
           inkscape:connector-curvature="0"
           d="M 29,34 34.477,28.652 36.61,31 33.688,34 M 29,34"
           id="path63-6" />
        <path
           style="fill:#f9f9f9;fill-opacity:0.91399997;fill-rule:nonzero;stroke:none"
           inkscape:connector-curvature="0"
           d="m 14.781,16.875 c -2.09,0 -3.781,1.691 -3.781,3.781 0,2.09 1.691,3.781 3.781,3.781 0.086,0 0.164,-0.027 0.25,-0.031 L 15,24.437 c 0.113,0.039 0.316,-0.012 0.531,-0.063 0.426,-0.105 0.93,-0.246 1.188,0.031 l 2.625,2.469 1.875,-1.875 -2.594,-2.438 c -0.27,-0.242 -0.195,-0.68 -0.125,-1.156 0.035,-0.234 0.059,-0.484 0.063,-0.719 0,-0.012 0,-0.023 0,-0.031 0,-2.09 -1.691,-3.781 -3.781,-3.781 m 0.063,2.313 c 0.828,0 1.5,0.672 1.5,1.5 0,0.828 -0.672,1.5 -1.5,1.5 -0.828,0 -1.5,-0.672 -1.5,-1.5 0,-0.828 0.672,-1.5 1.5,-1.5 m 0,0"
           id="path65-9" />
      </g>
    </g>
  </g>
</svg>
